;FLAVOR:UltiGCode
;TIME:5948      
;MATERIAL:9805      
;MATERIAL2:0         

;Layer count: 138
;LAYER:0
M107
G0 F9000 X87.408 Y61.480 Z0.300
;TYPE:SKIRT
G1 F1200 X161.808 Y61.480 E8.92800
G1 X161.808 Y163.880 E21.21600
G1 X87.408 Y163.880 E30.14400
G1 X87.408 Y61.480 E42.43200
G10
G0 F9000 X91.208 Y65.280
;TYPE:WALL-INNER
G11
G1 F1200 X158.008 Y65.280 E50.44800
G1 X158.008 Y160.080 E61.82400
G1 X91.208 Y160.080 E69.84000
G1 X91.208 Y65.280 E81.21600
G0 F9000 X90.808 Y64.880
;TYPE:WALL-OUTER
G1 F1200 X158.408 Y64.880 E89.32800
G1 X158.408 Y160.480 E100.80000
G1 X90.808 Y160.480 E108.91200
G1 X90.808 Y64.880 E120.38400
G0 F9000 X91.346 Y65.608
;TYPE:FILL
G1 F1200 X157.867 Y132.129 E131.67299
G0 F9000 X157.867 Y132.694
G1 F1200 X91.346 Y66.173 E142.96198
G0 F9000 X91.346 Y66.739
G1 F1200 X157.867 Y133.260 E154.25096
G0 F9000 X157.867 Y133.826
G1 F1200 X91.346 Y67.305 E165.53995
G0 F9000 X91.346 Y67.870
G1 F1200 X157.867 Y134.392 E176.82903
G0 F9000 X157.867 Y134.957
G1 F1200 X91.346 Y68.436 E188.11801
G0 F9000 X91.346 Y69.002
G1 F1200 X157.867 Y135.523 E199.40700
G0 F9000 X157.867 Y136.089
G1 F1200 X91.346 Y69.567 E210.69607
G0 F9000 X91.346 Y70.133
G1 F1200 X157.867 Y136.654 E221.98506
G0 F9000 X157.867 Y137.220
G1 F1200 X91.346 Y70.699 E233.27405
G0 F9000 X91.346 Y71.265
G1 F1200 X157.867 Y137.786 E244.56304
G0 F9000 X157.867 Y138.351
G1 F1200 X91.346 Y71.830 E255.85203
G0 F9000 X91.346 Y72.396
G1 F1200 X157.867 Y138.917 E267.14101
G0 F9000 X157.867 Y139.483
G1 F1200 X91.346 Y72.962 E278.43000
G0 F9000 X91.346 Y73.527
G1 F1200 X157.867 Y140.048 E289.71899
G0 F9000 X157.867 Y140.614
G1 F1200 X91.346 Y74.093 E301.00798
G0 F9000 X91.346 Y74.659
G1 F1200 X157.867 Y141.180 E312.29697
G0 F9000 X157.867 Y141.745
G1 F1200 X91.346 Y75.224 E323.58595
G0 F9000 X91.346 Y75.790
G1 F1200 X157.867 Y142.311 E334.87494
G0 F9000 X157.867 Y142.877
G1 F1200 X91.346 Y76.356 E346.16393
G0 F9000 X91.346 Y76.921
G1 F1200 X157.867 Y143.442 E357.45292
G0 F9000 X157.867 Y144.008
G1 F1200 X91.346 Y77.487 E368.74191
G0 F9000 X91.346 Y78.053
G1 F1200 X157.867 Y144.574 E380.03089
G0 F9000 X157.867 Y145.140
G1 F1200 X91.346 Y78.618 E391.31997
G0 F9000 X91.346 Y79.184
G1 F1200 X157.867 Y145.705 E402.60896
G0 F9000 X157.867 Y146.271
G1 F1200 X91.346 Y79.750 E413.89794
G0 F9000 X91.346 Y80.316
G1 F1200 X157.867 Y146.837 E425.18693
G0 F9000 X157.867 Y147.402
G1 F1200 X91.346 Y80.881 E436.47592
G0 F9000 X91.346 Y81.447
G1 F1200 X157.867 Y147.968 E447.76491
G0 F9000 X157.867 Y148.534
G1 F1200 X91.346 Y82.013 E459.05390
G0 F9000 X91.346 Y82.578
G1 F1200 X157.867 Y149.099 E470.34288
G0 F9000 X157.867 Y149.665
G1 F1200 X91.346 Y83.144 E481.63187
G0 F9000 X91.346 Y83.710
G1 F1200 X157.867 Y150.231 E492.92086
G0 F9000 X157.867 Y150.796
G1 F1200 X91.346 Y84.275 E504.20985
G0 F9000 X91.346 Y84.841
G1 F1200 X157.867 Y151.362 E515.49884
G0 F9000 X157.867 Y151.928
G1 F1200 X91.346 Y85.407 E526.78782
G0 F9000 X91.346 Y85.972
G1 F1200 X157.867 Y152.493 E538.07681
G0 F9000 X157.867 Y153.059
G1 F1200 X91.346 Y86.538 E549.36580
G0 F9000 X91.346 Y87.104
G1 F1200 X157.867 Y153.625 E560.65479
G0 F9000 X157.867 Y154.190
G1 F1200 X91.346 Y87.669 E571.94378
G0 F9000 X91.346 Y88.235
G1 F1200 X157.867 Y154.756 E583.23276
G0 F9000 X157.867 Y155.322
G1 F1200 X91.346 Y88.801 E594.52175
G0 F9000 X91.346 Y89.366
G1 F1200 X157.867 Y155.888 E605.81083
G0 F9000 X157.867 Y156.453
G1 F1200 X91.346 Y89.932 E617.09981
G0 F9000 X91.346 Y90.498
G1 F1200 X157.867 Y157.019 E628.38880
G0 F9000 X157.867 Y157.585
G1 F1200 X91.346 Y91.064 E639.67779
G0 F9000 X91.346 Y91.629
G1 F1200 X157.867 Y158.150 E650.96678
G0 F9000 X157.867 Y158.716
G1 F1200 X91.346 Y92.195 E662.25577
G0 F9000 X91.346 Y92.761
G1 F1200 X157.867 Y159.282 E673.54475
G0 F9000 X157.867 Y159.847
G1 F1200 X91.346 Y93.326 E684.83374
G0 F9000 X91.346 Y93.892
G1 F1200 X157.393 Y159.939 E696.04229
G0 F9000 X156.827 Y159.939
G1 F1200 X91.346 Y94.458 E707.15478
G0 F9000 X91.346 Y95.023
G1 F1200 X156.262 Y159.939 E718.17139
G0 F9000 X155.696 Y159.939
G1 F1200 X91.346 Y95.589 E729.09195
G0 F9000 X91.346 Y96.155
G1 F1200 X155.130 Y159.939 E739.91645
G0 F9000 X154.565 Y159.939
G1 F1200 X91.346 Y96.720 E750.64507
G0 F9000 X91.346 Y97.286
G1 F1200 X153.999 Y159.939 E761.27764
G0 F9000 X153.433 Y159.939
G1 F1200 X91.346 Y97.852 E771.81415
G0 F9000 X91.346 Y98.417
G1 F1200 X152.868 Y159.939 E782.25478
G0 F9000 X152.302 Y159.939
G1 F1200 X91.346 Y98.983 E792.59936
G0 F9000 X91.346 Y99.549
G1 F1200 X151.736 Y159.939 E802.84788
G0 F9000 X151.170 Y159.939
G1 F1200 X91.346 Y100.115 E813.00035
G0 F9000 X91.346 Y100.680
G1 F1200 X150.605 Y159.939 E823.05694
G0 F9000 X150.039 Y159.939
G1 F1200 X91.346 Y101.246 E833.01747
G0 F9000 X91.346 Y101.812
G1 F1200 X149.473 Y159.939 E842.88195
G0 F9000 X148.908 Y159.939
G1 F1200 X91.346 Y102.377 E852.65055
G0 F9000 X91.346 Y102.943
G1 F1200 X148.342 Y159.939 E862.32309
G0 F9000 X147.776 Y159.939
G1 F1200 X91.346 Y103.509 E871.89958
G0 F9000 X91.346 Y104.074
G1 F1200 X147.211 Y159.939 E881.38018
G0 F9000 X146.645 Y159.939
G1 F1200 X91.346 Y104.640 E890.76473
G0 F9000 X91.346 Y105.206
G1 F1200 X146.079 Y159.939 E900.05323
G0 F9000 X145.514 Y159.939
G1 F1200 X91.346 Y105.771 E909.24584
G0 F9000 X91.346 Y106.337
G1 F1200 X144.948 Y159.939 E918.34241
G0 F9000 X144.382 Y159.939
G1 F1200 X91.346 Y106.903 E927.34291
G0 F9000 X91.346 Y107.468
G1 F1200 X143.817 Y159.939 E936.24754
G0 F9000 X143.251 Y159.939
G1 F1200 X91.346 Y108.034 E945.05611
G0 F9000 X91.346 Y108.600
G1 F1200 X142.685 Y159.939 E953.76863
G0 F9000 X142.119 Y159.939
G1 F1200 X91.346 Y109.165 E962.38517
G0 F9000 X91.346 Y109.731
G1 F1200 X141.554 Y159.939 E970.90575
G0 F9000 X140.988 Y159.939
G1 F1200 X91.346 Y110.297 E979.33028
G0 F9000 X91.346 Y110.863
G1 F1200 X140.422 Y159.939 E987.65875
G0 F9000 X139.857 Y159.939
G1 F1200 X91.346 Y111.428 E995.89134
G0 F9000 X91.346 Y111.994
G1 F1200 X139.291 Y159.939 E1004.02788
G0 F9000 X138.725 Y159.939
G1 F1200 X91.346 Y112.560 E1012.06836
G0 F9000 X91.347 Y113.126
G1 F1200 X138.160 Y159.939 E1020.01279
G0 F9000 X137.594 Y159.939
G1 F1200 X91.347 Y113.692 E1027.86117
G0 F9000 X91.347 Y114.257
G1 F1200 X137.028 Y159.939 E1035.61358
G0 F9000 X136.463 Y159.939
G1 F1200 X91.347 Y114.823 E1043.27002
G0 F9000 X91.347 Y115.389
G1 F1200 X135.897 Y159.939 E1050.83040
G0 F9000 X135.331 Y159.939
G1 F1200 X91.347 Y115.954 E1058.29482
G0 F9000 X91.347 Y116.520
G1 F1200 X134.766 Y159.939 E1065.66327
G0 F9000 X134.200 Y159.939
G1 F1200 X91.347 Y117.086 E1072.93566
G0 F9000 X91.347 Y117.651
G1 F1200 X133.634 Y159.939 E1080.11209
G0 F9000 X133.069 Y159.939
G1 F1200 X91.347 Y118.217 E1087.19255
G0 F9000 X91.347 Y118.783
G1 F1200 X132.503 Y159.939 E1094.17695
G0 F9000 X131.937 Y159.939
G1 F1200 X91.347 Y119.349 E1101.06530
G0 F9000 X91.347 Y119.914
G1 F1200 X131.371 Y159.939 E1107.85769
G0 F9000 X130.806 Y159.939
G1 F1200 X91.347 Y120.480 E1114.55410
G0 F9000 X91.347 Y121.046
G1 F1200 X130.240 Y159.939 E1121.15446
G0 F9000 X129.674 Y159.939
G1 F1200 X91.347 Y121.611 E1127.65885
G0 F9000 X91.347 Y122.177
G1 F1200 X129.109 Y159.939 E1134.06728
G0 F9000 X128.543 Y159.939
G1 F1200 X91.347 Y122.743 E1140.37965
G0 F9000 X91.347 Y123.308
G1 F1200 X127.977 Y159.939 E1146.59605
G0 F9000 X127.412 Y159.939
G1 F1200 X91.347 Y123.874 E1152.71648
G0 F9000 X91.347 Y124.440
G1 F1200 X126.846 Y159.939 E1158.74086
G0 F9000 X126.280 Y159.939
G1 F1200 X91.347 Y125.005 E1164.66928
G0 F9000 X91.347 Y125.571
G1 F1200 X125.715 Y159.939 E1170.50172
G0 F9000 X125.149 Y159.939
G1 F1200 X91.347 Y126.137 E1176.23811
G0 F9000 X91.347 Y126.702
G1 F1200 X124.583 Y159.939 E1181.87853
G0 F9000 X124.018 Y159.939
G1 F1200 X91.347 Y127.268 E1187.42298
G0 F9000 X91.347 Y127.834
G1 F1200 X123.452 Y159.939 E1192.87138
G0 F9000 X122.886 Y159.939
G1 F1200 X91.347 Y128.399 E1198.22381
G0 F9000 X91.347 Y128.965
G1 F1200 X122.320 Y159.939 E1203.48019
G0 F9000 X121.755 Y159.939
G1 F1200 X91.347 Y129.531 E1208.64060
G0 F9000 X91.347 Y130.097
G1 F1200 X121.189 Y159.939 E1213.70495
G0 F9000 X120.623 Y159.939
G1 F1200 X91.347 Y130.662 E1218.67334
G0 F9000 X91.347 Y131.228
G1 F1200 X120.058 Y159.939 E1223.54576
G0 F9000 X119.492 Y159.939
G1 F1200 X91.347 Y131.794 E1228.32212
G0 F9000 X91.347 Y132.359
G1 F1200 X118.926 Y159.939 E1233.00252
G0 F9000 X118.361 Y159.939
G1 F1200 X91.347 Y132.925 E1237.58695
G0 F9000 X91.347 Y133.491
G1 F1200 X117.795 Y159.939 E1242.07532
G0 F9000 X117.229 Y159.939
G1 F1200 X91.347 Y134.056 E1246.46773
G0 F9000 X91.347 Y134.622
G1 F1200 X116.664 Y159.939 E1250.76417
G0 F9000 X116.098 Y159.939
G1 F1200 X91.347 Y135.188 E1254.96455
G0 F9000 X91.347 Y135.753
G1 F1200 X115.532 Y159.939 E1259.06896
G0 F9000 X114.967 Y159.939
G1 F1200 X91.347 Y136.319 E1263.07741
G0 F9000 X91.347 Y136.885
G1 F1200 X114.401 Y159.939 E1266.98980
G0 F9000 X113.835 Y159.939
G1 F1200 X91.347 Y137.450 E1270.80623
G0 F9000 X91.347 Y138.016
G1 F1200 X113.270 Y159.939 E1274.52669
G0 F9000 X112.704 Y159.939
G1 F1200 X91.347 Y138.582 E1278.15109
G0 F9000 X91.347 Y139.148
G1 F1200 X112.138 Y159.939 E1281.67944
G0 F9000 X111.572 Y159.939
G1 F1200 X91.347 Y139.713 E1285.11182
G0 F9000 X91.347 Y140.279
G1 F1200 X111.007 Y159.939 E1288.44823
G0 F9000 X110.441 Y159.939
G1 F1200 X91.347 Y140.845 E1291.68859
G0 F9000 X91.347 Y141.410
G1 F1200 X109.875 Y159.939 E1294.83298
G0 F9000 X109.310 Y159.939
G1 F1200 X91.347 Y141.976 E1297.88141
G0 F9000 X91.347 Y142.542
G1 F1200 X108.744 Y159.939 E1300.83377
G0 F9000 X108.178 Y159.939
G1 F1200 X91.347 Y143.107 E1303.69017
G0 F9000 X91.347 Y143.673
G1 F1200 X107.613 Y159.939 E1306.45061
G0 F9000 X107.047 Y159.939
G1 F1200 X91.347 Y144.239 E1309.11498
G0 F9000 X91.347 Y144.804
G1 F1200 X106.481 Y159.939 E1311.68339
G0 F9000 X105.916 Y159.939
G1 F1200 X91.347 Y145.370 E1314.15584
G0 F9000 X91.347 Y145.936
G1 F1200 X105.350 Y159.939 E1316.53222
G0 F9000 X104.784 Y159.939
G1 F1200 X91.347 Y146.501 E1318.81264
G0 F9000 X91.347 Y147.067
G1 F1200 X104.219 Y159.939 E1320.99709
G0 F9000 X103.653 Y159.939
G1 F1200 X91.347 Y147.633 E1323.08549
G0 F9000 X91.347 Y148.198
G1 F1200 X103.087 Y159.939 E1325.07792
G0 F9000 X102.521 Y159.939
G1 F1200 X91.347 Y148.764 E1326.97430
G0 F9000 X91.347 Y149.330
G1 F1200 X101.956 Y159.939 E1328.77470
G0 F9000 X101.390 Y159.939
G1 F1200 X91.347 Y149.896 E1330.47906
G0 F9000 X91.347 Y150.461
G1 F1200 X100.824 Y159.939 E1332.08744
G0 F9000 X100.259 Y159.939
G1 F1200 X91.347 Y151.027 E1333.59986
G0 F9000 X91.347 Y151.593
G1 F1200 X99.693 Y159.939 E1335.01622
G0 F9000 X99.127 Y159.939
G1 F1200 X91.347 Y152.158 E1336.33662
G0 F9000 X91.347 Y152.724
G1 F1200 X98.562 Y159.939 E1337.56104
G0 F9000 X97.996 Y159.939
G1 F1200 X91.347 Y153.290 E1338.68941
G0 F9000 X91.347 Y153.855
G1 F1200 X97.430 Y159.939 E1339.72182
G0 F9000 X96.865 Y159.939
G1 F1200 X91.347 Y154.421 E1340.65825
G0 F9000 X91.347 Y154.987
G1 F1200 X96.299 Y159.939 E1341.49864
G0 F9000 X95.733 Y159.939
G1 F1200 X91.347 Y155.552 E1342.24305
G0 F9000 X91.347 Y156.118
G1 F1200 X95.168 Y159.939 E1342.89150
G0 F9000 X94.602 Y159.939
G1 F1200 X91.347 Y156.684 E1343.44389
G0 F9000 X91.347 Y157.249
G1 F1200 X94.036 Y159.939 E1343.90031
G0 F9000 X93.471 Y159.939
G1 F1200 X91.347 Y157.815 E1344.26077
G0 F9000 X91.347 Y158.381
G1 F1200 X92.905 Y159.939 E1344.52517
G0 F9000 X91.347 Y158.946
G1 F1200 X92.339 Y159.939 E1344.69360
G0 F9000 X91.347 Y159.512
G1 F1200 X91.773 Y159.939 E1344.76598
G0 F9000 X157.867 Y131.563
G1 F1200 X91.724 Y65.420 E1355.99082
G0 F9000 X92.290 Y65.420
G1 F1200 X157.867 Y130.997 E1367.11960
G0 F9000 X157.867 Y130.432
G1 F1200 X92.855 Y65.420 E1378.15251
G0 F9000 X93.421 Y65.420
G1 F1200 X157.867 Y129.866 E1389.08936
G0 F9000 X157.867 Y129.300
G1 F1200 X93.987 Y65.420 E1399.93015
G0 F9000 X94.552 Y65.420
G1 F1200 X157.867 Y128.735 E1410.67506
G0 F9000 X157.867 Y128.169
G1 F1200 X95.118 Y65.420 E1421.32392
G0 F9000 X95.684 Y65.420
G1 F1200 X157.867 Y127.603 E1431.87673
G0 F9000 X157.867 Y127.038
G1 F1200 X96.249 Y65.420 E1442.33365
G0 F9000 X96.815 Y65.420
G1 F1200 X157.867 Y126.472 E1452.69452
G0 F9000 X157.867 Y125.906
G1 F1200 X97.381 Y65.420 E1462.95933
G0 F9000 X97.947 Y65.420
G1 F1200 X157.867 Y125.341 E1473.12818
G0 F9000 X157.867 Y124.775
G1 F1200 X98.512 Y65.420 E1483.20105
G0 F9000 X99.078 Y65.420
G1 F1200 X157.867 Y124.209 E1493.17788
G0 F9000 X157.867 Y123.643
G1 F1200 X99.644 Y65.420 E1503.05865
G0 F9000 X100.209 Y65.420
G1 F1200 X157.867 Y123.078 E1512.84354
G0 F9000 X157.867 Y122.512
G1 F1200 X100.775 Y65.420 E1522.53237
G0 F9000 X101.341 Y65.420
G1 F1200 X157.867 Y121.946 E1532.12515
G0 F9000 X157.867 Y121.381
G1 F1200 X101.906 Y65.420 E1541.62205
G0 F9000 X102.472 Y65.420
G1 F1200 X157.867 Y120.815 E1551.02289
G0 F9000 X157.867 Y120.249
G1 F1200 X103.038 Y65.420 E1560.32768
G0 F9000 X103.603 Y65.420
G1 F1200 X157.867 Y119.684 E1569.53659
G0 F9000 X157.867 Y119.118
G1 F1200 X104.169 Y65.420 E1578.64944
G0 F9000 X104.735 Y65.420
G1 F1200 X157.867 Y118.552 E1587.66624
G0 F9000 X157.867 Y117.987
G1 F1200 X105.300 Y65.420 E1596.58715
G0 F9000 X105.866 Y65.420
G1 F1200 X157.867 Y117.421 E1605.41202
G0 F9000 X157.867 Y116.855
G1 F1200 X106.432 Y65.420 E1614.14082
G0 F9000 X106.997 Y65.420
G1 F1200 X157.867 Y116.290 E1622.77375
G0 F9000 X157.867 Y115.724
G1 F1200 X107.563 Y65.420 E1631.31062
G0 F9000 X108.129 Y65.420
G1 F1200 X157.867 Y115.158 E1639.75144
G0 F9000 X157.867 Y114.593
G1 F1200 X108.695 Y65.420 E1648.09629
G0 F9000 X109.260 Y65.420
G1 F1200 X157.867 Y114.027 E1656.34517
G0 F9000 X157.867 Y113.461
G1 F1200 X109.826 Y65.420 E1664.49800
G0 F9000 X110.392 Y65.420
G1 F1200 X157.867 Y112.895 E1672.55477
G0 F9000 X157.867 Y112.330
G1 F1200 X110.957 Y65.420 E1680.51567
G0 F9000 X111.523 Y65.420
G1 F1200 X157.867 Y111.764 E1688.38050
G0 F9000 X157.867 Y111.198
G1 F1200 X112.089 Y65.420 E1696.14929
G0 F9000 X112.654 Y65.420
G1 F1200 X157.867 Y110.633 E1703.82219
G0 F9000 X157.867 Y110.067
G1 F1200 X113.220 Y65.420 E1711.39903
G0 F9000 X113.786 Y65.420
G1 F1200 X157.867 Y109.501 E1718.87983
G0 F9000 X157.867 Y108.936
G1 F1200 X114.351 Y65.420 E1726.26474
G0 F9000 X114.917 Y65.420
G1 F1200 X157.867 Y108.370 E1733.55360
G0 F9000 X157.867 Y107.804
G1 F1200 X115.483 Y65.420 E1740.74640
G0 F9000 X116.048 Y65.420
G1 F1200 X157.867 Y107.239 E1747.84332
G0 F9000 X157.867 Y106.673
G1 F1200 X116.614 Y65.420 E1754.84418
G0 F9000 X117.180 Y65.420
G1 F1200 X157.867 Y106.107 E1761.74900
G0 F9000 X157.867 Y105.542
G1 F1200 X117.746 Y65.420 E1768.55784
G0 F9000 X118.311 Y65.420
G1 F1200 X157.867 Y104.976 E1775.27072
G0 F9000 X157.867 Y104.410
G1 F1200 X118.877 Y65.420 E1781.88754
G0 F9000 X119.443 Y65.420
G1 F1200 X157.867 Y103.844 E1788.40831
G0 F9000 X157.867 Y103.279
G1 F1200 X120.008 Y65.420 E1794.83319
G0 F9000 X120.574 Y65.420
G1 F1200 X157.867 Y102.713 E1801.16203
G0 F9000 X157.867 Y102.147
G1 F1200 X121.140 Y65.420 E1807.39480
G0 F9000 X121.705 Y65.420
G1 F1200 X157.867 Y101.582 E1813.53170
G0 F9000 X157.867 Y101.016
G1 F1200 X122.271 Y65.420 E1819.57254
G0 F9000 X122.837 Y65.420
G1 F1200 X157.867 Y100.450 E1825.51733
G0 F9000 X157.867 Y99.885
G1 F1200 X123.402 Y65.420 E1831.36623
G0 F9000 X123.968 Y65.420
G1 F1200 X157.867 Y99.319 E1837.11908
G0 F9000 X157.867 Y98.753
G1 F1200 X124.534 Y65.420 E1842.77588
G0 F9000 X125.099 Y65.420
G1 F1200 X157.867 Y98.188 E1848.33680
G0 F9000 X157.867 Y97.622
G1 F1200 X125.665 Y65.420 E1853.80166
G0 F9000 X126.231 Y65.420
G1 F1200 X157.867 Y97.056 E1859.17046
G0 F9000 X157.867 Y96.491
G1 F1200 X126.796 Y65.420 E1864.44339
G0 F9000 X127.362 Y65.420
G1 F1200 X157.867 Y95.925 E1869.62026
G0 F9000 X157.867 Y95.359
G1 F1200 X127.928 Y65.420 E1874.70107
G0 F9000 X128.494 Y65.420
G1 F1200 X157.867 Y94.794 E1879.68592
G0 F9000 X157.867 Y94.228
G1 F1200 X129.059 Y65.420 E1884.57480
G0 F9000 X129.625 Y65.420
G1 F1200 X157.867 Y93.662 E1889.36763
G0 F9000 X157.867 Y93.096
G1 F1200 X130.191 Y65.420 E1894.06440
G0 F9000 X130.756 Y65.420
G1 F1200 X157.867 Y92.531 E1898.66529
G0 F9000 X157.867 Y91.965
G1 F1200 X131.322 Y65.420 E1903.17013
G0 F9000 X131.888 Y65.420
G1 F1200 X157.867 Y91.399 E1907.57891
