;FLAVOR:UltiGCode
;TIME:5131      
;MATERIAL:8406      
;MATERIAL2:0         

;Layer count: 118
;LAYER:0
M107
G0 F9000 X97.130 Y72.667 Z0.300
G0 X97.898 Y71.684
;TYPE:SKIRT
G1 F1200 X98.731 Y70.810 E0.14489
G1 X99.645 Y70.016 E0.29017
G1 X100.631 Y69.315 E0.43535
G1 X101.659 Y68.720 E0.57788
G1 X102.757 Y68.217 E0.72281
G1 X103.898 Y67.819 E0.86782
G1 X105.076 Y67.531 E1.01334
G1 X106.232 Y67.363 E1.15352
G1 X106.932 Y67.311 E1.23775
G1 X122.207 Y67.300 E3.07075
G1 X123.114 Y67.312 E3.17960
G1 X124.296 Y67.424 E3.32208
G1 X125.484 Y67.652 E3.46724
G1 X126.646 Y67.992 E3.61252
G1 X127.769 Y68.441 E3.75766
G1 X128.845 Y68.995 E3.90288
G1 X129.833 Y69.630 E4.04382
G1 X129.972 Y69.734 E4.06465
G1 X130.816 Y70.398 E4.19352
G1 X131.690 Y71.231 E4.33840
G1 X132.484 Y72.145 E4.48369
G1 X133.185 Y73.131 E4.62887
G1 X133.780 Y74.159 E4.77140
G1 X134.283 Y75.257 E4.91633
G1 X134.681 Y76.398 E5.06134
G1 X134.969 Y77.576 E5.20686
G1 X135.137 Y78.732 E5.34704
G1 X135.189 Y79.433 E5.43139
G1 X135.200 Y111.821 E9.31795
G1 X135.200 Y145.038 E13.30399
G1 X135.185 Y145.652 E13.37769
G1 X135.076 Y146.797 E13.51571
G1 X134.848 Y147.984 E13.66076
G1 X134.508 Y149.146 E13.80604
G1 X134.059 Y150.269 E13.95117
G1 X133.505 Y151.345 E14.09640
G1 X132.870 Y152.333 E14.23734
G1 X132.766 Y152.472 E14.25817
G1 X132.102 Y153.316 E14.38704
G1 X131.269 Y154.190 E14.53192
G1 X130.355 Y154.984 E14.67721
G1 X129.369 Y155.685 E14.82238
G1 X128.341 Y156.280 E14.96492
G1 X127.243 Y156.783 E15.10984
G1 X126.102 Y157.181 E15.25486
G1 X124.924 Y157.469 E15.40038
G1 X123.768 Y157.637 E15.54056
G1 X123.068 Y157.689 E15.62479
G1 X107.793 Y157.700 E17.45779
G1 X106.886 Y157.688 E17.56664
G1 X105.704 Y157.576 E17.70911
G1 X104.516 Y157.348 E17.85427
G1 X103.354 Y157.008 E17.99956
G1 X102.231 Y156.559 E18.14469
G1 X101.155 Y156.005 E18.28992
G1 X100.167 Y155.370 E18.43086
G1 X100.028 Y155.266 E18.45169
G1 X99.184 Y154.602 E18.58056
G1 X98.310 Y153.769 E18.72544
G1 X97.516 Y152.855 E18.87073
G1 X96.815 Y151.869 E19.01590
G1 X96.220 Y150.841 E19.15844
G1 X95.717 Y149.743 E19.30336
G1 X95.319 Y148.602 E19.44837
G1 X95.031 Y147.424 E19.59390
G1 X94.863 Y146.268 E19.73408
G1 X94.811 Y145.567 E19.81843
G1 X94.800 Y113.179 E23.70499
G1 X94.800 Y79.962 E27.69103
G1 X94.815 Y79.348 E27.76473
G1 X94.924 Y78.203 E27.90275
G1 X95.152 Y77.016 E28.04779
G1 X95.492 Y75.854 E28.19308
G1 X95.941 Y74.731 E28.33821
G1 X96.495 Y73.655 E28.48344
G1 X97.130 Y72.667 E28.62438
G1 X97.234 Y72.528 E28.64521
G1 X97.898 Y71.684 E28.77408
G10
G0 F9000 X101.994 Y73.009
;TYPE:WALL-INNER
G11
G1 F1200 X102.690 Y72.514 E28.87656
G1 X103.409 Y72.098 E28.97625
G1 X104.168 Y71.750 E29.07644
G1 X104.983 Y71.466 E29.18001
G1 X105.800 Y71.266 E29.28094
G1 X106.655 Y71.142 E29.38462
G1 X107.069 Y71.111 E29.43444
G1 X122.179 Y71.100 E31.24764
G1 X122.915 Y71.110 E31.33597
G1 X123.756 Y71.189 E31.43733
G1 X124.587 Y71.349 E31.53888
G1 X125.404 Y71.588 E31.64103
G1 X126.189 Y71.902 E31.74249
G1 X126.947 Y72.291 E31.84473
G1 X127.662 Y72.751 E31.94675
G1 X128.323 Y73.271 E32.04767
G1 X128.939 Y73.858 E32.14978
G1 X129.491 Y74.494 E32.25084
G1 X129.986 Y75.190 E32.35332
G1 X130.402 Y75.909 E32.45301
G1 X130.750 Y76.668 E32.55320
G1 X131.034 Y77.483 E32.65677
G1 X131.234 Y78.300 E32.75771
G1 X131.358 Y79.155 E32.86138
G1 X131.389 Y79.569 E32.91120
G1 X131.400 Y144.986 E40.76124
G1 X131.389 Y145.433 E40.81489
G1 X131.311 Y146.256 E40.91410
G1 X131.151 Y147.087 E41.01565
G1 X130.912 Y147.904 E41.11780
G1 X130.598 Y148.689 E41.21925
G1 X130.209 Y149.447 E41.32149
G1 X129.749 Y150.162 E41.42352
G1 X129.229 Y150.823 E41.52444
G1 X128.642 Y151.439 E41.62655
G1 X128.006 Y151.991 E41.72760
G1 X127.310 Y152.486 E41.83009
G1 X126.591 Y152.902 E41.92977
G1 X125.832 Y153.250 E42.02997
G1 X125.017 Y153.534 E42.13354
G1 X124.200 Y153.734 E42.23447
G1 X123.345 Y153.858 E42.33815
G1 X122.931 Y153.889 E42.38796
G1 X107.821 Y153.900 E44.20116
G1 X107.085 Y153.890 E44.28949
G1 X106.244 Y153.811 E44.39086
G1 X105.413 Y153.651 E44.49241
G1 X104.596 Y153.412 E44.59456
G1 X103.811 Y153.098 E44.69601
G1 X103.053 Y152.709 E44.79825
G1 X102.335 Y152.247 E44.90071
G1 X101.677 Y151.729 E45.00120
G1 X101.061 Y151.142 E45.10331
G1 X100.509 Y150.506 E45.20436
G1 X100.014 Y149.810 E45.30685
G1 X99.598 Y149.091 E45.40653
G1 X99.250 Y148.332 E45.50673
G1 X98.966 Y147.517 E45.61030
G1 X98.766 Y146.700 E45.71123
G1 X98.642 Y145.845 E45.81491
G1 X98.611 Y145.431 E45.86473
G1 X98.600 Y80.014 E53.71477
G1 X98.611 Y79.567 E53.76842
G1 X98.689 Y78.744 E53.86762
G1 X98.849 Y77.913 E53.96918
G1 X99.088 Y77.096 E54.07133
G1 X99.402 Y76.311 E54.17278
G1 X99.791 Y75.553 E54.27502
G1 X100.253 Y74.835 E54.37748
G1 X100.771 Y74.177 E54.47797
G1 X101.358 Y73.561 E54.58007
G1 X101.994 Y73.009 E54.68113
G0 F9000 X103.356 Y72.012
G0 X103.220 Y71.745
;TYPE:WALL-OUTER
G1 F1200 X104.026 Y71.375 E54.78756
G1 X104.870 Y71.081 E54.89480
G1 X105.720 Y70.873 E54.99981
G1 X106.610 Y70.744 E55.10773
G1 X107.054 Y70.711 E55.16116
G1 X122.184 Y70.700 E56.97676
G1 X122.933 Y70.710 E57.06665
G1 X123.816 Y70.793 E57.17307
G1 X124.680 Y70.960 E57.27867
G1 X125.533 Y71.209 E57.38530
G1 X126.359 Y71.539 E57.49204
G1 X127.147 Y71.944 E57.59836
G1 X127.886 Y72.419 E57.70378
G1 X128.586 Y72.970 E57.81068
G1 X129.230 Y73.583 E57.91737
G1 X129.808 Y74.249 E58.02319
G1 X130.323 Y74.973 E58.12981
G1 X130.755 Y75.720 E58.23336
G1 X131.125 Y76.526 E58.33979
G1 X131.420 Y77.373 E58.44741
G1 X131.626 Y78.216 E58.55155
G1 X131.756 Y79.110 E58.65996
G1 X131.789 Y79.552 E58.71315
G1 X131.800 Y144.995 E66.56631
G1 X131.789 Y145.452 E66.62116
G1 X131.707 Y146.316 E66.72531
G1 X131.540 Y147.180 E66.83091
G1 X131.291 Y148.033 E66.93754
G1 X130.961 Y148.860 E67.04439
G1 X130.556 Y149.647 E67.15060
G1 X130.081 Y150.386 E67.25602
G1 X129.530 Y151.086 E67.36292
G1 X128.917 Y151.730 E67.46961
G1 X128.251 Y152.308 E67.57543
G1 X127.527 Y152.823 E67.68205
G1 X126.780 Y153.255 E67.78560
G1 X125.974 Y153.625 E67.89203
G1 X125.130 Y153.919 E67.99927
G1 X124.280 Y154.127 E68.10428
G1 X123.390 Y154.256 E68.21220
G1 X122.946 Y154.289 E68.26563
G1 X107.816 Y154.300 E70.08123
G1 X107.067 Y154.290 E70.17112
G1 X106.184 Y154.207 E70.27754
G1 X105.320 Y154.040 E70.38314
G1 X104.467 Y153.791 E70.48977
G1 X103.641 Y153.461 E70.59651
G1 X102.853 Y153.056 E70.70283
G1 X102.111 Y152.579 E70.80868
G1 X101.414 Y152.030 E70.91515
G1 X100.770 Y151.417 E71.02184
G1 X100.192 Y150.751 E71.12766
G1 X99.677 Y150.027 E71.23428
G1 X99.245 Y149.280 E71.33783
G1 X98.875 Y148.474 E71.44426
G1 X98.580 Y147.627 E71.55188
G1 X98.373 Y146.780 E71.65652
G1 X98.244 Y145.890 E71.76443
G1 X98.211 Y145.448 E71.81762
G1 X98.200 Y80.005 E79.67078
G1 X98.211 Y79.543 E79.72624
G1 X98.293 Y78.684 E79.82978
G1 X98.460 Y77.820 E79.93538
G1 X98.709 Y76.967 E80.04202
G1 X99.039 Y76.141 E80.14875
G1 X99.444 Y75.353 E80.25507
G1 X99.919 Y74.614 E80.36049
G1 X100.470 Y73.914 E80.46739
G1 X101.083 Y73.270 E80.57408
G1 X101.749 Y72.692 E80.67990
G1 X102.473 Y72.177 E80.78652
G1 X103.220 Y71.745 E80.89007
G0 F9000 X103.573 Y72.177
;TYPE:FILL
G1 F1200 X131.252 Y99.856 E85.58735
G0 F9000 X131.252 Y99.291
G1 F1200 X103.960 Y71.999 E90.21896
G0 F9000 X104.358 Y71.831
G1 F1200 X131.251 Y98.724 E94.78285
G0 F9000 X131.251 Y98.159
G1 F1200 X104.777 Y71.685 E99.27564
G0 F9000 X105.211 Y71.553
G1 F1200 X131.251 Y97.593 E103.69478
G0 F9000 X131.251 Y97.027
G1 F1200 X105.666 Y71.442 E108.03669
G0 F9000 X106.146 Y71.356
G1 F1200 X131.251 Y96.462 E112.29724
G0 F9000 X131.251 Y95.896
G1 F1200 X106.640 Y71.285 E116.47386
G0 F9000 X107.171 Y71.250
G1 F1200 X131.251 Y95.330 E120.56038
G0 F9000 X131.251 Y94.764
G1 F1200 X107.737 Y71.250 E124.55083
G0 F9000 X108.303 Y71.250
G1 F1200 X131.251 Y94.198 E128.44524
G0 F9000 X131.251 Y93.632
G1 F1200 X108.868 Y71.250 E132.24367
G0 F9000 X109.434 Y71.250
G1 F1200 X131.251 Y93.067 E135.94614
G0 F9000 X131.251 Y92.501
G1 F1200 X110.000 Y71.250 E139.55256
G0 F9000 X110.566 Y71.250
G1 F1200 X131.251 Y91.935 E143.06292
G0 F9000 X131.251 Y91.370
G1 F1200 X111.131 Y71.250 E146.47739
G0 F9000 X111.697 Y71.250
G1 F1200 X131.250 Y90.803 E149.79565
G0 F9000 X131.250 Y90.238
G1 F1200 X112.263 Y71.250 E153.01793
G0 F9000 X112.828 Y71.250
G1 F1200 X131.250 Y89.672 E156.14425
G0 F9000 X131.250 Y89.106
G1 F1200 X113.394 Y71.250 E159.17451
G0 F9000 X113.960 Y71.250
G1 F1200 X131.250 Y88.541 E162.10881
G0 F9000 X131.250 Y87.975
G1 F1200 X114.525 Y71.250 E164.94714
G0 F9000 X115.091 Y71.250
G1 F1200 X131.250 Y87.409 E167.68941
G0 F9000 X131.249 Y86.843
G1 F1200 X115.657 Y71.250 E170.33554
G0 F9000 X116.222 Y71.250
G1 F1200 X131.249 Y86.277 E172.88571
G0 F9000 X131.249 Y85.711
G1 F1200 X116.788 Y71.250 E175.33982
G0 F9000 X117.354 Y71.250
G1 F1200 X131.249 Y85.146 E177.69797
G0 F9000 X131.249 Y84.580
G1 F1200 X117.919 Y71.250 E179.96015
G0 F9000 X118.485 Y71.250
G1 F1200 X131.249 Y84.014 E182.12627
G0 F9000 X131.249 Y83.449
G1 F1200 X119.051 Y71.250 E184.19642
G0 F9000 X119.617 Y71.250
G1 F1200 X131.248 Y82.882 E186.17035
G0 F9000 X131.248 Y82.317
G1 F1200 X120.182 Y71.250 E188.04840
G0 F9000 X120.748 Y71.250
G1 F1200 X131.248 Y81.751 E189.83039
G0 F9000 X131.248 Y81.185
G1 F1200 X121.314 Y71.250 E191.51633
G0 F9000 X121.879 Y71.250
G1 F1200 X131.248 Y80.620 E193.10639
G0 F9000 X131.248 Y80.054
G1 F1200 X122.445 Y71.250 E194.60039
G0 F9000 X123.021 Y71.260
G1 F1200 X131.241 Y79.481 E195.99546
G0 F9000 X131.171 Y78.845
G1 F1200 X123.645 Y71.319 E197.27266
G0 F9000 X124.335 Y71.443
G1 F1200 X131.056 Y78.164 E198.41326
G0 F9000 X130.855 Y77.398
G1 F1200 X125.103 Y71.646 E199.38940
G0 F9000 X126.000 Y71.977
G1 F1200 X130.514 Y76.491 E200.15545
G0 F9000 X129.887 Y75.298
G1 F1200 X127.224 Y72.635 E200.60738
G0 F9000 X103.207 Y72.377
G1 F1200 X131.252 Y100.422 E205.36677
G0 F9000 X131.252 Y100.988
G1 F1200 X102.848 Y72.584 E210.18709
G0 F9000 X102.511 Y72.812
G1 F1200 X131.252 Y101.553 E215.06460
G0 F9000 X131.252 Y102.119
G1 F1200 X102.181 Y73.048 E219.99811
G0 F9000 X101.870 Y73.302
G1 F1200 X131.253 Y102.686 E224.98466
G0 F9000 X131.253 Y103.251
G1 F1200 X101.567 Y73.565 E230.02254
G0 F9000 X101.281 Y73.845
G1 F1200 X131.253 Y103.817 E235.10896
G0 F9000 X131.253 Y104.383
G1 F1200 X101.004 Y74.134 E240.24238
G0 F9000 X100.742 Y74.438
G1 F1200 X131.253 Y104.948 E245.42019
G0 F9000 X131.253 Y105.514
G1 F1200 X100.493 Y74.754 E250.64033
G0 F9000 X100.257 Y75.084
G1 F1200 X131.253 Y106.080 E255.90053
G0 F9000 X131.253 Y106.646
G1 F1200 X100.035 Y75.428 E261.19840
G0 F9000 X99.827 Y75.785
G1 F1200 X131.253 Y107.212 E266.53165
G0 F9000 X131.253 Y107.777
G1 F1200 X99.635 Y76.159 E271.89741
G0 F9000 X99.456 Y76.546
G1 F1200 X131.253 Y108.343 E277.29353
G0 F9000 X131.253 Y108.909
G1 F1200 X99.295 Y76.950 E282.71707
G0 F9000 X99.151 Y77.373
G1 F1200 X131.253 Y109.474 E288.16488
G0 F9000 X131.253 Y110.040
G1 F1200 X99.023 Y77.810 E293.63449
G0 F9000 X98.920 Y78.273
G1 F1200 X131.254 Y110.607 E299.12175
G0 F9000 X131.254 Y111.172
G1 F1200 X98.829 Y78.747 E304.62446
G0 F9000 X98.779 Y79.263
G1 F1200 X131.254 Y111.738 E310.13565
G0 F9000 X131.254 Y112.304
G1 F1200 X98.743 Y79.793 E315.65295
G0 F9000 X98.738 Y80.354
G1 F1200 X131.254 Y112.869 E321.17101
G0 F9000 X131.254 Y113.435
G1 F1200 X98.738 Y80.919 E326.68916
G0 F9000 X98.738 Y81.485
G1 F1200 X131.254 Y114.001 E332.20731
G0 F9000 X131.255 Y114.567
G1 F1200 X98.738 Y82.051 E337.72554
G0 F9000 X98.738 Y82.616
G1 F1200 X131.255 Y115.133 E343.24386
G0 F9000 X131.255 Y115.698
G1 F1200 X98.738 Y83.182 E348.76209
G0 F9000 X98.738 Y83.748
G1 F1200 X131.255 Y116.264 E354.28032
G0 F9000 X131.255 Y116.830
G1 F1200 X98.739 Y84.314 E359.79847
G0 F9000 X98.739 Y84.880
G1 F1200 X131.255 Y117.395 E365.31653
G0 F9000 X131.255 Y117.961
G1 F1200 X98.739 Y85.446 E370.83460
G0 F9000 X98.739 Y86.011
G1 F1200 X131.255 Y118.528 E376.35283
G0 F9000 X131.255 Y119.093
G1 F1200 X98.739 Y86.577 E381.87098
G0 F9000 X98.739 Y87.143
G1 F1200 X131.255 Y119.659 E387.38913
G0 F9000 X131.255 Y120.225
G1 F1200 X98.739 Y87.708 E392.90736
G0 F9000 X98.740 Y88.275
G1 F1200 X131.255 Y120.790 E398.42534
G0 F9000 X131.255 Y121.356
G1 F1200 X98.740 Y88.840 E403.94340
G0 F9000 X98.740 Y89.406
G1 F1200 X131.256 Y121.922 E409.46155
G0 F9000 X131.256 Y122.488
G1 F1200 X98.740 Y89.972 E414.97970
G0 F9000 X98.740 Y90.537
G1 F1200 X131.256 Y123.054 E420.49793
G0 F9000 X131.256 Y123.619
G1 F1200 X98.740 Y91.103 E426.01608
G0 F9000 X98.741 Y91.670
G1 F1200 X131.256 Y124.185 E431.53406
G0 F9000 X131.256 Y124.751
G1 F1200 X98.741 Y92.235 E437.05212
G0 F9000 X98.741 Y92.801
G1 F1200 X131.256 Y125.316 E442.57010
G0 F9000 X131.257 Y125.883
G1 F1200 X98.741 Y93.367 E448.08825
G0 F9000 X98.741 Y93.932
G1 F1200 X131.257 Y126.449 E453.60648
G0 F9000 X131.257 Y127.014
G1 F1200 X98.741 Y94.498 E459.12463
G0 F9000 X98.741 Y95.064
G1 F1200 X131.257 Y127.580 E464.64278
G0 F9000 X131.257 Y128.146
G1 F1200 X98.741 Y95.630 E470.16093
G0 F9000 X98.741 Y96.196
G1 F1200 X131.257 Y128.711 E475.67899
G0 F9000 X131.257 Y129.277
G1 F1200 X98.741 Y96.761 E481.19714
G0 F9000 X98.741 Y97.327
G1 F1200 X131.258 Y129.843 E486.71537
G0 F9000 X131.258 Y130.409
G1 F1200 X98.741 Y97.893 E492.23360
G0 F9000 X98.741 Y98.458
G1 F1200 X131.258 Y130.975 E497.75192
G0 F9000 X131.258 Y131.540
G1 F1200 X98.741 Y99.024 E503.27015
G0 F9000 X98.742 Y99.591
G1 F1200 X131.258 Y132.106 E508.78822
G0 F9000 X131.258 Y132.672
G1 F1200 X98.742 Y100.156 E514.30637
G0 F9000 X98.742 Y100.722
G1 F1200 X131.258 Y133.238 E519.82451
G0 F9000 X131.258 Y133.804
G1 F1200 X98.742 Y101.288 E525.34266
G0 F9000 X98.742 Y101.853
G1 F1200 X131.258 Y134.370 E530.86090
G0 F9000 X131.258 Y134.935
G1 F1200 X98.742 Y102.419 E536.37904
G0 F9000 X98.742 Y102.985
G1 F1200 X131.258 Y135.501 E541.89719
G0 F9000 X131.258 Y136.067
G1 F1200 X98.743 Y103.551 E547.41525
G0 F9000 X98.743 Y104.117
G1 F1200 X131.258 Y136.632 E552.93323
G0 F9000 X131.258 Y137.198
G1 F1200 X98.743 Y104.682 E558.45130
G0 F9000 X98.743 Y105.248
G1 F1200 X131.259 Y137.764 E563.96944
G0 F9000 X131.259 Y138.330
G1 F1200 X98.743 Y105.814 E569.48759
G0 F9000 X98.743 Y106.379
G1 F1200 X131.259 Y138.896 E575.00583
G0 F9000 X131.259 Y139.461
G1 F1200 X98.743 Y106.945 E580.52397
G0 F9000 X98.743 Y107.512
G1 F1200 X131.259 Y140.027 E586.04204
G0 F9000 X131.259 Y140.593
G1 F1200 X98.743 Y108.077 E591.56019
G0 F9000 X98.743 Y108.643
G1 F1200 X131.260 Y141.159 E597.07842
G0 F9000 X131.260 Y141.725
G1 F1200 X98.743 Y109.209 E602.59665
G0 F9000 X98.743 Y109.774
G1 F1200 X131.260 Y142.291 E608.11497
G0 F9000 X131.260 Y142.856
G1 F1200 X98.743 Y110.340 E613.63320
G0 F9000 X98.744 Y110.906
G1 F1200 X131.260 Y143.422 E619.15135
G0 F9000 X131.260 Y143.988
G1 F1200 X98.744 Y111.472 E624.66950
G0 F9000 X98.744 Y112.038
G1 F1200 X131.260 Y144.553 E630.18756
G0 F9000 X131.257 Y145.116
G1 F1200 X98.744 Y112.603 E635.70520
G0 F9000 X98.744 Y113.169
G1 F1200 X131.227 Y145.652 E641.21775
G0 F9000 X131.179 Y146.170
G1 F1200 X98.744 Y113.735 E646.72215
G0 F9000 X98.744 Y114.300
G1 F1200 X131.093 Y146.649 E652.21196
G0 F9000 X130.995 Y147.117
G1 F1200 X98.745 Y114.867 E657.68497
G0 F9000 X98.745 Y115.433
G1 F1200 X130.867 Y147.555 E663.13625
G0 F9000 X130.729 Y147.983
G1 F1200 X98.745 Y115.998 E668.56420
G0 F9000 X98.745 Y116.564
G1 F1200 X130.568 Y148.387 E673.96474
G0 F9000 X130.395 Y148.780
G1 F1200 X98.745 Y117.130 E679.33592
G0 F9000 X98.745 Y117.695
G1 F1200 X130.203 Y149.153 E684.67452
G0 F9000 X129.999 Y149.515
G1 F1200 X98.745 Y118.261 E689.97850
G0 F9000 X98.746 Y118.827
G1 F1200 X129.778 Y149.859 E695.24481
G0 F9000 X129.546 Y150.193
G1 F1200 X98.746 Y119.393 E700.47174
G0 F9000 X98.746 Y119.959
G1 F1200 X129.296 Y150.509 E705.65625
G0 F9000 X129.039 Y150.818
G1 F1200 X98.746 Y120.524 E710.79723
G0 F9000 X98.746 Y121.090
G1 F1200 X128.763 Y151.108 E715.89137
G0 F9000 X128.481 Y151.391
G1 F1200 X98.746 Y121.656 E720.93756
G0 F9000 X98.746 Y122.221
G1 F1200 X128.178 Y151.654 E725.93242
G0 F9000 X127.871 Y151.913
G1 F1200 X98.746 Y122.788 E730.87510
G0 F9000 X98.746 Y123.354
G1 F1200 X127.541 Y152.148 E735.76169
G0 F9000 X127.209 Y152.382
